X: 38818
T: Sullivan's John
R: waltz
M: 3/4
K: Dmixolydian
A2|D4 D2|E4 FG|A4 d2|c4 B2|A2 G2 E2|D4 E2|D6-|D4 A2|
d4 d2|e4 d2|c4 Bc|A2 G2 E2|D4 DD|E2 F2 G2|A6-|A4 A2|
d4 cd|e4 d2|c4 B/c/B|A2 G2 E2|D4 D2|E2 F2 G2|A6-|A2 G2 E2|
D4 CD|E4 FG|A4 d2|c4 B2|A3 G E2|D4 E2|D6-|D4||

